!!!OTL: Xia guandong
!!!ARE: Asia, China,ÿShandong, Qingdao
!! III, 362
!!!SCT: C1568
!!!YEM: Copyright 1995, estate of Helmut Schaffrath.
**kern
*ICvox
*Ivox
*M2/4
*k[b-]
*F:
{8f
8f
8d
8c
=1
4f
8d
8c
=2
8.cc
16a
8g
8a
=3
2cc}
=4
{8cc
8a
8cc
8ff
=5
8dd
16ee
16dd
4cc
=6
8dd
8cc
8cc
8a
=7
2g}
=8
{4g
4cc
=9
4.a
8g
=10
8.cc
16dd
8a
8g
=11
4f
4c}
=12
{4.f
16g
16a
=13
4g
8f
8d
=14
[2c
=15
2c]}
=16
{8f
8f
8c
8d
=17
2f
=18
4cc
4cc
=19
4.a
8g}
=20
{8cc
8a
8cc
8ff
=21
4dd
4cc
=22
8dd
8cc
8cc
8a
=23
2g}
=24
{4cc
4cc
=25
4a
8g
8f
=26
4d
4f
=27
8f
8c
4d}
=28
{4f
8g
8a
=29
8g
8f
4d
=30
[2c
=31
4c]
4r}
==
!!!AGN: Xiaodiao
!!!AMT: simple duple
!!!AIN: vox
!!!EED: Helmut Schaffrath
!!!EEV: 1.0
*-
!!!ONB: Tied note syntax fixed by Craig Sapp, 2004/05/03/
